src/pos-icons/page-layout-header.svg

<svg height="24" viewBox="0 0 24 24" width="24" xmlns="http://www.w3.org/2000/svg"><path d="m6 2h12a2 2 0 0 1 2 2v16a2 2 0 0 1 -2 2h-12a2 2 0 0 1 -2-2v-16a2 2 0 0 1 2-2m0 2v4h12v-4z"/></svg>

<?xml version="1.0" encoding="UTF-8"?><!DOCTYPE svg PUBLIC "-//W3C//DTD SVG 1.1//EN" "http://www.w3.org/Graphics/SVG/1.1/DTD/svg11.dtd"><svg xmlns="http://www.w3.org/2000/svg" xmlns:xlink="http://www.w3.org/1999/xlink" version="1.1" id="mdi-page-layout-header" width="24" height="24" viewBox="0 0 24 24"><path d="M6,2H18A2,2 0 0,1 20,4V20A2,2 0 0,1 18,22H6A2,2 0 0,1 4,20V4A2,2 0 0,1 6,2M6,4V8H18V4H6Z" /></svg>
